icons/1_Primary/Electronic Arts.svg

<svg width="1024" height="1024" viewBox="0 0 1024 1024" fill="none" xmlns="http://www.w3.org/2000/svg">
<g clip-path="url(#clip0_2_2082)">
<path d="M512 1024C794.77 1024 1024 794.77 1024 512C1024 229.23 794.77 0 512 0C229.23 0 0 229.23 0 512C0 794.77 229.23 1024 512 1024Z" fill="#FF837D"/>
<path d="M625.6 355.9L490.8 570.5H341.3L375.8 516.7H465.4L499.6 462.9H292.5L258.3 516.7H307.4L239.3 624.1H523.4L628.3 458.6L666.6 516.7H632.1L599.4 570.5H701.6L737.1 624.1H802.3L625.6 355.9ZM580.5 355.4H360.1L326.7 409.2H546.9L580.5 355.4Z" fill="white"/>
</g>
<defs>
<clipPath id="clip0_2_2082">
<rect width="1024" height="1024" fill="white"/>
</clipPath>
</defs>
</svg>

<svg width="1024" height="1024" fill="none" xmlns="http://www.w3.org/2000/svg"><g clip-path="url(#a)"><path d="M512 1024c282.77 0 512-229.23 512-512S794.77 0 512 0 0 229.23 0 512s229.23 512 512 512Z" fill="#FF837D"/><path d="M625.6 355.9 490.8 570.5H341.3l34.5-53.8h89.6l34.2-53.8H292.5l-34.2 53.8h49.1l-68.1 107.4h284.1l104.9-165.5 38.3 58.1h-34.5l-32.7 53.8h102.2l35.5 53.6h65.2L625.6 355.9Zm-45.1-.5H360.1l-33.4 53.8h220.2l33.6-53.8Z" fill="#fff"/></g><defs><clipPath id="a"><path fill="#fff" d="M0 0h1024v1024H0z"/></clipPath></defs></svg>
